actions/16/go-jump-rtl.svg

<?xml version="1.0" encoding="UTF-8" standalone="no"?>
<svg
   xmlns:dc="http://purl.org/dc/elements/1.1/"
   xmlns:cc="http://creativecommons.org/ns#"
   xmlns:rdf="http://www.w3.org/1999/02/22-rdf-syntax-ns#"
   xmlns:svg="http://www.w3.org/2000/svg"
   xmlns="http://www.w3.org/2000/svg"
   xmlns:xlink="http://www.w3.org/1999/xlink"
   version="1.1"
   width="16"
   height="16"
   id="svg3881">
  <defs
     id="defs3883">
    <linearGradient
       x1="43.972588"
       y1="15.341511"
       x2="21.157627"
       y2="15.341511"
       id="linearGradient3842"
       xlink:href="#linearGradient4087-5"
       gradientUnits="userSpaceOnUse"
       gradientTransform="matrix(0,-0.39447799,-0.42344634,0,16.496307,18.346218)" />
    <linearGradient
       id="linearGradient4087-5">
      <stop
         id="stop4089-8"
         style="stop-color:#ffffff;stop-opacity:1"
         offset="0" />
      <stop
         id="stop4091-2"
         style="stop-color:#ffffff;stop-opacity:0.23529412"
         offset="0.51153916" />
      <stop
         id="stop4093-6"
         style="stop-color:#ffffff;stop-opacity:0.15686275"
         offset="0.58522105" />
      <stop
         id="stop4095-0"
         style="stop-color:#ffffff;stop-opacity:0.39215687"
         offset="1" />
    </linearGradient>
    <linearGradient
       x1="22.52951"
       y1="8.5101461"
       x2="22.52951"
       y2="44.160072"
       id="linearGradient3877"
       xlink:href="#linearGradient2867-449-88-871-390-598-476-591-434-148-57-177"
       gradientUnits="userSpaceOnUse"
       gradientTransform="matrix(-0.36132509,0,0,0.33660657,17.140478,0.135429)" />
    <linearGradient
       id="linearGradient2867-449-88-871-390-598-476-591-434-148-57-177">
      <stop
         id="stop3750"
         style="stop-color:#90dbec;stop-opacity:1"
         offset="0" />
      <stop
         id="stop3752"
         style="stop-color:#55c1ec;stop-opacity:1"
         offset="0.26238" />
      <stop
         id="stop3754"
         style="stop-color:#3689e6;stop-opacity:1"
         offset="0.704952" />
      <stop
         id="stop3756"
         style="stop-color:#2b63a0;stop-opacity:1"
         offset="1" />
    </linearGradient>
  </defs>
  <metadata
     id="metadata3886">
    <rdf:RDF>
      <cc:Work
         rdf:about="">
        <dc:format>image/svg+xml</dc:format>
        <dc:type
           rdf:resource="http://purl.org/dc/dcmitype/StillImage" />
        <dc:title />
      </cc:Work>
    </rdf:RDF>
  </metadata>
  <g
     id="g4176">
    <path
       d="M 13.257478,4.4228781 C 9.9876363,0.67125736 4.6543067,1.8652771 4.5114587,7.531944 l -2.7623493,0 4.6031707,6.139317 4.6031659,-6.139317 -2.7401259,0 C 8.0872947,4.2337401 11.094525,2.5256061 13.257478,4.8834891 Z"
       id="path3503-1"
       style="display:block;overflow:visible;visibility:visible;fill:url(#linearGradient3877);fill-opacity:1;fill-rule:nonzero;stroke:none;stroke-width:0.96392483;stroke-linecap:butt;stroke-linejoin:round;stroke-miterlimit:7;stroke-dasharray:none;stroke-dashoffset:0;stroke-opacity:1;marker:none" />
    <path
       d="M 11.653985,3.5415791 C 9.7585278,1.9231291 5.0797637,3.1326411 5.4469971,8.5035707 l -1.7028531,0.056747 2.6081361,3.5685753 2.6373086,-3.5685753 -1.6856033,0 C 6.8073574,3.4207771 10.887749,3.0580991 11.653985,3.5415791 Z"
       id="path3505-3"
       style="display:block;overflow:visible;visibility:visible;opacity:0.8;fill:none;stroke:url(#linearGradient3842);stroke-width:0.96392483;stroke-linecap:butt;stroke-linejoin:miter;stroke-miterlimit:7;stroke-dasharray:none;stroke-dashoffset:0;stroke-opacity:1;marker:none" />
    <path
       d="M 13.257478,4.4228781 C 9.9876363,0.67125736 4.6543066,1.8652771 4.5114586,7.531944 l -2.7623493,0 4.6031707,6.139317 4.603166,-6.139317 -2.740126,0 C 8.0872946,4.2337401 11.094525,2.5256061 13.257478,4.8834891 Z"
       id="path3503-1-0"
       style="color:#000000;clip-rule:nonzero;display:inline;overflow:visible;visibility:visible;opacity:1;isolation:auto;mix-blend-mode:normal;color-interpolation:sRGB;color-interpolation-filters:linearRGB;solid-color:#000000;solid-opacity:1;fill:none;fill-opacity:1;fill-rule:evenodd;stroke:#00537d;stroke-width:1;stroke-linecap:butt;stroke-linejoin:round;stroke-miterlimit:4;stroke-dasharray:none;stroke-dashoffset:0;stroke-opacity:0.49803922;marker:none;color-rendering:auto;image-rendering:auto;shape-rendering:auto;text-rendering:auto;enable-background:accumulate" />
  </g>
</svg>

<?xml version="1.0" encoding="UTF-8" standalone="no"?>
<svg xmlns:dc="http://purl.org/dc/elements/1.1/" xmlns:cc="http://creativecommons.org/ns#" xmlns:rdf="http://www.w3.org/1999/02/22-rdf-syntax-ns#" xmlns:svg="http://www.w3.org/2000/svg" xmlns="http://www.w3.org/2000/svg" xmlns:xlink="http://www.w3.org/1999/xlink" xmlns:sodipodi="http://sodipodi.sourceforge.net/DTD/sodipodi-0.dtd" xmlns:inkscape="http://www.inkscape.org/namespaces/inkscape" version="1.1" width="16" height="16" id="svg3881" sodipodi:docname="go-jump-rtl.svg" inkscape:version="0.92.3 (2405546, 2018-03-11)">
  <sodipodi:namedview pagecolor="#ffffff" bordercolor="#666666" borderopacity="1" objecttolerance="10" gridtolerance="10" guidetolerance="10" inkscape:pageopacity="0" inkscape:pageshadow="2" inkscape:window-width="1920" inkscape:window-height="962" id="namedview21" showgrid="false" inkscape:zoom="14.75" inkscape:cx="8" inkscape:cy="7.4576271" inkscape:window-x="0" inkscape:window-y="30" inkscape:window-maximized="1" inkscape:current-layer="svg3881" />
  <defs id="defs3883">
    <linearGradient x1="43.972588" y1="15.341511" x2="21.157627" y2="15.341511" id="linearGradient3842" xlink:href="#linearGradient4087-5" gradientUnits="userSpaceOnUse" gradientTransform="matrix(0,-0.39447799,-0.42344634,0,16.496307,18.346218)" />
    <linearGradient id="linearGradient4087-5">
      <stop id="stop4089-8" style="stop-color:#ffffff;stop-opacity:1" offset="0" />
      <stop id="stop4091-2" style="stop-color:#ffffff;stop-opacity:0.23529412" offset="0.51153916" />
      <stop id="stop4093-6" style="stop-color:#ffffff;stop-opacity:0.15686275" offset="0.58522105" />
      <stop id="stop4095-0" style="stop-color:#ffffff;stop-opacity:0.39215687" offset="1" />
    </linearGradient>
    <linearGradient x1="22.52951" y1="8.5101461" x2="22.52951" y2="44.160072" id="linearGradient3877" xlink:href="#linearGradient2867-449-88-871-390-598-476-591-434-148-57-177" gradientUnits="userSpaceOnUse" gradientTransform="matrix(-0.36132509,0,0,0.33660657,17.140478,0.135429)" />
    <linearGradient id="linearGradient2867-449-88-871-390-598-476-591-434-148-57-177">
      <stop id="stop3750" style="stop-color:#8cd5ff;stop-opacity:1" offset="0" />
      <stop id="stop3752" style="stop-color:#64baff;stop-opacity:1" offset="0.26238" />
      <stop id="stop3754" style="stop-color:#3689e6;stop-opacity:1" offset="0.704952" />
      <stop id="stop3756" style="stop-color:#0d52bf;stop-opacity:1" offset="1" />
    </linearGradient>
  </defs>
  <metadata id="metadata3886">
    <rdf:RDF>
      <cc:Work rdf:about="">
        <dc:format>image/svg+xml</dc:format>
        <dc:type rdf:resource="http://purl.org/dc/dcmitype/StillImage" />
        <dc:title />
      </cc:Work>
    </rdf:RDF>
  </metadata>
  <path inkscape:connector-curvature="0" style="display:block;overflow:visible;visibility:visible;fill:url(#linearGradient3877);fill-opacity:1;fill-rule:nonzero;stroke:none;stroke-width:0.96392483;stroke-linecap:butt;stroke-linejoin:round;stroke-miterlimit:7;stroke-dasharray:none;stroke-dashoffset:0;stroke-opacity:1;marker:none" id="path3503-1" d="M 13.257478,4.4228781 C 9.9876363,0.67125736 4.6543067,1.8652771 4.5114587,7.531944 H 1.7491094 L 6.3522801,13.671261 10.955446,7.531944 H 8.2153201 C 8.0872947,4.2337401 11.094525,2.5256061 13.257478,4.8834891 Z" />
  <path inkscape:connector-curvature="0" style="display:block;overflow:visible;visibility:visible;opacity:0.8;fill:none;stroke:url(#linearGradient3842);stroke-width:0.96392483;stroke-linecap:butt;stroke-linejoin:miter;stroke-miterlimit:7;stroke-dasharray:none;stroke-dashoffset:0;stroke-opacity:1;marker:none" id="path3505-3" d="M 11.653985,3.5415791 C 9.7585278,1.9231291 5.0797637,3.1326411 5.4469971,8.5035707 L 3.744144,8.5603177 6.3522801,12.128893 8.9895887,8.5603177 H 7.3039854 C 6.8073574,3.4207771 10.887749,3.0580991 11.653985,3.5415791 Z" />
  <path inkscape:connector-curvature="0" style="color:#000000;clip-rule:nonzero;display:inline;overflow:visible;visibility:visible;opacity:1;isolation:auto;mix-blend-mode:normal;color-interpolation:sRGB;color-interpolation-filters:linearRGB;solid-color:#000000;solid-opacity:1;fill:none;fill-opacity:1;fill-rule:evenodd;stroke:#0d52bf;stroke-width:1;stroke-linecap:butt;stroke-linejoin:round;stroke-miterlimit:4;stroke-dasharray:none;stroke-dashoffset:0;stroke-opacity:0.49803922;marker:none;color-rendering:auto;image-rendering:auto;shape-rendering:auto;text-rendering:auto;enable-background:accumulate" id="path3503-1-0" d="M 13.257478,4.4228781 C 9.9876363,0.67125736 4.6543066,1.8652771 4.5114586,7.531944 H 1.7491093 L 6.35228,13.671261 10.955446,7.531944 H 8.21532 C 8.0872946,4.2337401 11.094525,2.5256061 13.257478,4.8834891 Z" />
</svg>
